X: 39802
T: Theo Paige's
R: reel
M: 4/4
K: Dmajor
fd~d2 edcA|BGEF ~G2GA|FAAA GBAd|cdef gbag|
fd~d2 edcA|BGEF ~G2GA|FAAA GBAd|cdeg fdde:|
|:fd~d2 fdef|ge~e2 geag|fdAF ~G2GA|FAdf gbag|
fd~d2 fdef|ge~e2 geag|fdAF ~G2GA|FAag fdde:|

